X:30
T:Kesh Jig
R:jig
C:Traditional
M:6/8
K:G
G3 GAB | AGA ABd | edd gdd | edB dBA |
GFG GAB | AGA ABd | edd gdB |[1 AGF G2D :|[2 AGF G3 |]
|: B3 dBd | ege dBG | B3 dBG| ABA AGA |
B3 dBd | ege dBd | gfg aga | bgf g3:|

%%newpage
%%scale .65
%%staffsep 35

